X:53
T:Inte s\"orjer jag f\"or mina barn \"ar sm{\aa}
R:sl-polska
H:efter Johan August Pettersson, Tolg, Sm{\aa}land
H:\"Aven i Am. Jfr #137
A:Sm{\aa}land
Z:id:hn-sp-53
M:3/4
L:1/16
K:Gm
D3G G2G2 F2G2 | G2G2 F2G2 A4 |
w:In-te s\"or-jer jag f\"or mi-na barn \"ar sm{\aa}
B2A2 d2AA B2AA | G2G2 F2F2 G4 :|
w:fem-ton ligg-er i grav-en och rest-en \"ar s{\aa} f{\aa}.
|:B2(3cBA B2c2 d4 | d4 A4 c4 |
d4 G4 B4 | A2(3BAG F2F2 G4 :|
W:2. Inte s\"orjer jag f\"or kassan den \"ar tom
W:   inte r{\aa}r jag f\"or att p{\aa}ven bor i Rom
W:3. Inte s\"ojer jag f\"or \"angen bliver gr\"on
W:   d\"ar \"ar gr\"aset mjukt och lilla blomman sk\"on
W:Vers 1 \"aven:
W:   Somma b\"orja krypa, andra b\"orja g{\aa}
W:Del 2:
W:   Hustru min \"ar sn\"aller, fast\"an hon gn\"aller, 
W:   N\"ar det sen blir kv\"aller, slumra alla s\"ott. 
W:Vers 2, del 2:
W:   Han har m{\aa}nga pengar, feta, lata dr\"angar, 
W:   Som i mjuka s\"angar slumra in s{\aa} s\"ott. 
W:Vers 3, del 2:
W:   D\"ar ska vi spatsera, jag och barnen flera. 
W:   D\"ar ska vi regera, sedan slumra s\"ott. 
W:4. Inte s\"orjer jag, f\"or visan ej \"ar l{\aa}ng, 
W:   Barnet sjunger v\"al en l\"angre n{\aa}gon g{\aa}ng. 
W:   Sen jag livets grader, genomg{\aa}tt s{\aa} glader, 
W:   Vill jag be Gud Fader att f{\aa} slumra s\"ott. 
W:Hopp fallerallalera, Fallallerallerala! 
W:Hopp fallerallalera, Fallallerallerala! 
W:
W:
W:
W:
W:
W:
W:

